packages/ffe-icons/icons/open/400/sm/format_h5.svg

<svg xmlns="http://www.w3.org/2000/svg" height="20" viewBox="0 -960 960 960" width="20"><path d="M180.211-288Q165-288 154.5-298.35 144-308.7 144-324v-312q0-15.3 10.289-25.65 10.29-10.35 25.5-10.35Q195-672 205.5-661.65 216-651.3 216-636v120h168v-120q0-15 10.289-25.5 10.29-10.5 25.5-10.5Q435-672 445.5-661.65 456-651.3 456-636v312q0 15.3-10.289 25.65-10.29 10.35-25.5 10.35Q405-288 394.5-298.35 384-308.7 384-324v-120H216v120q0 15-10.289 25.5-10.29 10.5-25.5 10.5Zm384.072 0Q549-288 538.5-298.289q-10.5-10.29-10.5-25.5Q528-339 538.35-349.5 548.7-360 564-360h180v-84H564.276Q549-444 538.5-454.35T528-480v-156q0-15.3 10.338-25.65Q548.677-672 563.96-672h215.757Q795-672 805.5-661.711q10.5 10.29 10.5 25.5Q816-621 805.65-610.5 795.3-600 780-600H600v84h144.249Q774-516 795-494.85q21 21.15 21 50.85v84q0 29.7-21.126 50.85Q773.747-288 744.081-288H564.283Z"/></svg>

<svg xmlns="http://www.w3.org/2000/svg" height="20" viewBox="0 -960 960 960" width="20"><path d="M180.21-288q-15.21 0-25.71-10.35T144-324v-312q0-15.3 10.29-25.65Q164.58-672 179.79-672t25.71 10.35Q216-651.3 216-636v120h168v-120q0-15 10.29-25.5t25.5-10.5q15.21 0 25.71 10.35T456-636v312q0 15.3-10.29 25.65Q435.42-288 420.21-288t-25.71-10.35Q384-308.7 384-324v-120H216v120q0 15-10.29 25.5t-25.5 10.5Zm384.07 0q-15.28 0-25.78-10.29-10.5-10.29-10.5-25.5t10.35-25.71Q548.7-360 564-360h180v-84H564.28q-15.28 0-25.78-10.35Q528-464.7 528-480v-156q0-15.3 10.34-25.65Q548.68-672 563.96-672h215.76q15.28 0 25.78 10.29 10.5 10.29 10.5 25.5t-10.35 25.71Q795.3-600 780-600H600v84h144.25Q774-516 795-494.85T816-444v84q0 29.7-21.13 50.85Q773.75-288 744.08-288h-179.8Z"/></svg>
